X: 60
T: No_23_Dancing_Song_from_the_South_God_(f).krn
N: Derived from No_23_Dancing_Song_from_the_South_God_(f).krn
%%abc-version 2.0
%%abcx-abcm2ps-target-version 5.9.1 (29 Sep 2008)
%%abc-creator hum2abc beta
%%abcx-conversion-date 2019/03/15 08:35:44
%%humdrum-veritas 2192722146
%%humdrum-veritas-data 2005504437
%%linebreak <none>
%%barnumbers 0
L: 1/8
M: 3/4
K: E clef=bass
[K:clef=bass][M:3/4]B,3/B,/ B,3/B,/ B,^A, | 
B,4C3/C/ ||  
[M:2/4]B,3/B,/A,2 | 
A,4 | 
B,3/B,/ (3A,F,B, ||  
[M:3/8]E,2E, ||  
[M:2/4]B,3/B,/ (3A,F,B, | 
E,2E, z/ G,/ ||  
[M:5/8](3G,E,E,E,2E, ||  
[M:2/4]B,3/B,/ (3A,F,A, | 
E,2E, z/ G,/ ||  
[M:5/8](3G,E,E,E,2E, ||  
[M:2/4]B,3/B,/ (3A,F,B, | 
E,2E,2 |]  



